src/icons/svg/star.svg

<svg viewBox="0 0 16 16"><path d="M8.00001 0.25C8.14003 0.24991 8.27727 0.289014 8.39621 0.362887C8.51515 0.43676 8.61103 0.542452 8.67301 0.668L10.555 4.483L14.765 5.095C14.9035 5.11511 15.0336 5.17355 15.1405 5.26372C15.2475 5.35388 15.3272 5.47218 15.3704 5.60523C15.4137 5.73829 15.4189 5.8808 15.3854 6.01665C15.352 6.1525 15.2812 6.27628 15.181 6.374L12.135 9.344L12.854 13.536C12.8777 13.6739 12.8624 13.8157 12.8097 13.9454C12.757 14.0751 12.6691 14.1874 12.5559 14.2697C12.4427 14.352 12.3087 14.401 12.1691 14.4111C12.0295 14.4212 11.8899 14.3921 11.766 14.327L8.00001 12.347L4.23401 14.327C4.1102 14.392 3.97068 14.4211 3.8312 14.411C3.69173 14.4009 3.55785 14.352 3.44469 14.2699C3.33154 14.1877 3.2436 14.0755 3.19083 13.946C3.13805 13.8165 3.12252 13.6749 3.14601 13.537L3.86601 9.343L0.818012 6.374C0.717578 6.27632 0.646511 6.15247 0.612864 6.01647C0.579216 5.88047 0.584334 5.73777 0.627636 5.60453C0.670939 5.47129 0.750695 5.35284 0.857868 5.26261C0.96504 5.17238 1.09534 5.11397 1.23401 5.094L5.44401 4.483L7.32701 0.668C7.38899 0.542452 7.48488 0.43676 7.60382 0.362887C7.72276 0.289014 7.86 0.24991 8.00001 0.25ZM8.00001 2.695L6.61501 5.5C6.56123 5.6089 6.4818 5.70311 6.38356 5.77453C6.28531 5.84595 6.17119 5.89244 6.05101 5.91L2.95401 6.36L5.19401 8.544C5.28116 8.62886 5.34637 8.73365 5.384 8.84933C5.42163 8.96501 5.43056 9.0881 5.41001 9.208L4.88201 12.292L7.65101 10.836C7.75864 10.7794 7.87842 10.7499 8.00001 10.7499C8.12161 10.7499 8.24138 10.7794 8.34901 10.836L11.119 12.292L10.589 9.208C10.5685 9.0881 10.5774 8.96501 10.615 8.84933C10.6527 8.73365 10.7179 8.62886 10.805 8.544L13.045 6.361L9.94901 5.911C9.82883 5.89344 9.71471 5.84695 9.61647 5.77553C9.51822 5.70411 9.4388 5.6099 9.38501 5.501L8.00001 2.694V2.695Z"></path></svg>

<svg viewBox="0 0 16 16"><path d="M8 .25a.75.75 0 01.673.418l1.882 3.815 4.21.612a.75.75 0 01.416 1.279l-3.046 2.97.719 4.192a.75.75 0 01-1.088.791L8 12.347l-3.766 1.98a.75.75 0 01-1.088-.79l.72-4.194L.818 6.374a.75.75 0 01.416-1.28l4.21-.611L7.327.668A.75.75 0 018 .25zm0 2.445L6.615 5.5a.75.75 0 01-.564.41l-3.097.45 2.24 2.184a.75.75 0 01.216.664l-.528 3.084 2.769-1.456a.75.75 0 01.698 0l2.77 1.456-.53-3.084a.75.75 0 01.216-.664l2.24-2.183-3.096-.45a.75.75 0 01-.564-.41L8 2.694v.001z"/></svg>
